packages/web-icons/svgs/speechbubble_2.svg

<svg viewBox="0 0 56 48" xmlns="http://www.w3.org/2000/svg" class="ridi_icon"><path d="M36.6 0H19.4C8.9 0 .4 8.5.4 18.9c0 9.2 6.7 16.9 15.5 18.5v7.2c0 1.4.8 2.6 2.1 3.2.5.1.9.2 1.4.2.9 0 1.8-.3 2.4-1l9.6-9.3h5.2c10.4 0 18.9-8.5 18.9-18.9C55.6 8.5 47.1 0 36.6 0z"/></svg>

<?xml version="1.0" encoding="UTF-8"?>
<svg width="56px" height="48px" viewBox="0 0 56 48" version="1.1" xmlns="http://www.w3.org/2000/svg">
  <!-- Generator: Sketch 41.2 (35397) - http://www.bohemiancoding.com/sketch -->
  <title>speechbubble_2</title>
  <desc>Created with Sketch.</desc>
  <defs></defs>
  <g id="Page-1" stroke="none" stroke-width="1" fill="none" fill-rule="evenodd">
    <g id="speechbubble_2" fill="#444444">
      <g id="레이어_1">
        <path d="M36.6,0 L19.4,0 C8.9,0 0.4,8.5 0.4,18.9 C0.4,28.1 7.1,35.8 15.9,37.4 L15.9,44.6 C15.9,46 16.7,47.2 18,47.8 C18.5,47.9 18.9,48 19.4,48 C20.3,48 21.2,47.7 21.8,47 L31.4,37.7 L36.6,37.7 C47,37.7 55.5,29.2 55.5,18.8 C55.6,8.5 47.1,0 36.6,0 L36.6,0 Z" id="Shape"></path>
      </g>
    </g>
  </g>
</svg>
